X: 24
T: The Earl of Dalhousie's Return
T: March, D
L: 1/16
M: C
K: D
|: A,4| D6E2 G2F2E2D2| C4E4 A,4C4| D6E2 G2F2E2D2| d8 A4d4| B4g2B2 A4f2A2| G2F2E2D2 C2D2E2F2| G2F2E2D2 E2D2C2E2| D8 D4:| 
|: A4| d4A4 f6d2| e2d2c2B2 A2B2c2A2| d6e2 f2e2d2c2| B8 A4A1B1c2| d4D4 F2G2A2F2| d4A4 B2A2G2F2| E6D2 E2F2G2A2| B4B4 A4B2c2| 
d4A4 f6d2| e2d2c2B2 A2B2c2A2| d4d2e2 f2e2d2c2| B8 A4B2c2| d2c2B2A2 B2c2d2c2| B2A2G2F2 G2F2E2D2| G6F2 E2F2G2A2| B8 c4d4|| 
D: Carl MacKenzie, Highland Fiddle and Dance
